src/components/Icon/svg-icon/main/news.svg

<svg xmlns="http://www.w3.org/2000/svg" xmlns:xlink="http://www.w3.org/1999/xlink" width="24" height="24" viewBox="0 0 24 24">
  <defs>
    <path id="news-a" d="M18,3 L18,21 L4,21 C2.8954305,21 2,20.1045695 2,19 L2,3 L18,3 Z M22,9 L22,19 C22,20.0543618 21.1841222,20.9181651 20.1492623,20.9945143 L20,21 L20,9 L22,9 Z M11,9 L4,9 L4,18 C4,18.5128358 4.38604019,18.9355072 4.88337887,18.9932723 L5,19 L11,19 L11,9 Z M16,17 L13,17 L13,19 L16,19 L16,17 Z M16,9 L13,9 L13,15 L16,15 L16,9 Z M16,5 L4,5 L4,7 L16,7 L16,5 Z"/>
  </defs>
  <use fill="#677078" xlink:href="#news-a"/>
</svg>

<svg xmlns="http://www.w3.org/2000/svg" xmlns:xlink="http://www.w3.org/1999/xlink" width="24" height="24"><defs><path id="a" d="M18 3v18H4a2 2 0 01-2-2V3h16zm4 6v10a2 2 0 01-1.85 1.995L20 21V9h2zM11 9H4v9a1 1 0 00.883.993L5 19h6V9zm5 8h-3v2h3v-2zm0-8h-3v6h3V9zm0-4H4v2h12V5z"/></defs><use fill="#677078" xlink:href="#a"/></svg>
